site/static/images/icons/dashboard.svg

<svg fill="none" height="32" viewBox="0 0 32 32" width="32" xmlns="http://www.w3.org/2000/svg"><circle cx="16" cy="16" fill="#f0f8ff" r="16"/><path clip-rule="evenodd" d="m28 4h-24a2 2 0 0 0 -2 2v16a2 2 0 0 0 2 2h8v4h-4v2h16v-2h-4v-4h8a2 2 0 0 0 2-2v-16a2 2 0 0 0 -2-2zm-10 24h-4v-4h4zm10-6h-24v-16h24z" fill="#0075ff" fill-rule="evenodd" transform="matrix(.7 0 0 .7 4.9 4.9)"/></svg>

<svg width="32" height="32" viewBox="0 0 32 32" fill="none" xmlns="http://www.w3.org/2000/svg">
  <circle cx="16" cy="16" r="16" fill="#F0F8FF"/>
  <path transform="scale(0.7, 0.7), translate(7, 7)" fill-rule="evenodd" clip-rule="evenodd" d="M28,4H4A2,2,0,0,0,2,6V22a2,2,0,0,0,2,2h8v4H8v2H24V28H20V24h8a2,2,0,0,0,2-2V6A2,2,0,0,0,28,4ZM18,28H14V24h4Zm10-6H4V6H28Z" fill="#0075ff"/>
</svg>
